packages/assets/static/images/icons/transit.svg

<svg width="24" height="24" viewBox="0 0 24 24" xmlns="http://www.w3.org/2000/svg">
<path d="M15.9586 11.0064C16.4269 10.9312 16.7448 10.4946 16.6688 10.0312C16.5928 9.56779 16.1516 9.25311 15.6834 9.32833C15.2152 9.40355 14.8972 9.84019 14.9732 10.3036C15.0492 10.767 15.4904 11.0817 15.9586 11.0064Z"/>
<path d="M20.689 4.18168C20.418 4.18168 20.1734 4.28678 19.9907 4.45746V2.98524C19.9907 1.49117 18.7622 0.275391 17.2534 0.275391H9.23524C7.72556 0.275391 6.49795 1.49117 6.49795 2.98524V3.77558H2.89835C1.38698 3.77558 0.159363 4.99135 0.159363 6.48543V15.555C0.159363 16.9128 1.17459 18.0403 2.49311 18.2346L1.13806 19.8791C0.782092 20.3113 0.847508 20.9461 1.28333 21.2984C1.47279 21.4514 1.70047 21.5254 1.9273 21.5254C2.22295 21.5254 2.51605 21.3984 2.71824 21.1538L5.10042 18.264H8.717L11.0924 21.1168C11.2937 21.3589 11.586 21.4842 11.8799 21.4842C12.1085 21.4842 12.3378 21.4085 12.5273 21.2538C12.9623 20.8998 13.0234 20.2634 12.6658 19.8337L11.3328 18.2329C12.6454 18.0336 13.6538 16.9086 13.6538 15.555V13.728H15.0887V14.4191C15.0887 15.2876 15.8032 15.9947 16.6808 15.9947H18.3995C19.2771 15.9947 19.9915 15.2876 19.9915 14.4191V7.62469C20.1742 7.79537 20.4197 7.90047 20.6899 7.90047C21.2531 7.90047 21.7094 7.44897 21.7094 6.89153V5.19062C21.7094 4.63318 21.2523 4.18168 20.689 4.18168ZM17.9517 6.60818H13.653V6.48543C13.653 5.88511 13.4542 5.33019 13.1194 4.88121H17.9517V6.60818ZM2.19831 8.62775H11.614V10.5775H2.19831V8.62775ZM9.23439 2.29327H17.2526C17.5958 2.29327 17.8821 2.53962 17.9407 2.86249H8.54624C8.60486 2.53962 8.89116 2.29327 9.23439 2.29327ZM2.89665 5.79346H10.9148C11.3005 5.79346 11.6132 6.10371 11.6132 6.48543V6.60818H7.51572C7.50468 6.60818 7.49364 6.60986 7.48259 6.60986H2.19831V6.48543C2.19831 6.10371 2.5118 5.79346 2.89665 5.79346ZM10.9148 16.2461H4.61192C4.61192 16.2461 4.60937 16.2461 4.60767 16.2461H2.89665C2.51095 16.2461 2.19831 15.9359 2.19831 15.555V12.5963H11.614V15.555C11.614 15.9367 11.2997 16.2461 10.9148 16.2461ZM13.653 8.62607H17.9517V11.7101H13.653V8.62607ZM17.1268 13.9768V13.7271H17.9517V13.9768H17.1268Z"/>
<path d="M3.75556 13.8541C3.28065 13.8541 2.89665 14.2349 2.89665 14.7041C2.89665 15.1733 3.2815 15.5541 3.75556 15.5541C4.22962 15.5541 4.61447 15.1733 4.61447 14.7041C4.61447 14.2349 4.22962 13.8541 3.75556 13.8541Z"/>
<path d="M10.0559 15.5541C10.5303 15.5541 10.9148 15.1736 10.9148 14.7041C10.9148 14.2346 10.5303 13.8541 10.0559 13.8541C9.58155 13.8541 9.19701 14.2346 9.19701 14.7041C9.19701 15.1736 9.58155 15.5541 10.0559 15.5541Z"/>
</svg>

<svg viewBox="0 0 24 24" xmlns="http://www.w3.org/2000/svg" aria-hidden="true" fill="currentColor" height="24px" width="24px"><path d="M15.959 11.006a.85.85 0 0 0 .71-.975.86.86 0 0 0-.986-.703.85.85 0 0 0-.71.976.86.86 0 0 0 .986.702"/><path d="M20.689 4.182c-.271 0-.516.105-.698.275V2.985c0-1.494-1.229-2.71-2.738-2.71H9.235c-1.51 0-2.737 1.216-2.737 2.71v.79h-3.6C1.387 3.776.16 4.992.16 6.486v9.07c0 1.358 1.016 2.485 2.334 2.68L1.139 19.88a1 1 0 0 0 .145 1.42 1.026 1.026 0 0 0 1.435-.145l2.382-2.89h3.617l2.375 2.853a1.02 1.02 0 0 0 1.435.137c.435-.354.496-.99.139-1.42l-1.333-1.601c1.312-.2 2.32-1.324 2.32-2.678v-1.827h1.436v.691c0 .869.714 1.576 1.592 1.576H18.4c.878 0 1.592-.707 1.592-1.576V7.625c.183.17.429.275.699.275.563 0 1.02-.451 1.02-1.008V5.19c0-.558-.458-1.01-1.021-1.01m-2.737 2.426h-4.299v-.123c0-.6-.199-1.155-.534-1.604h4.833zM2.198 8.628h9.416v1.95H2.198zm7.036-6.335h8.019c.343 0 .63.247.688.57H8.546a.7.7 0 0 1 .688-.57m-6.337 3.5h8.018c.386 0 .698.31.698.692v.123H7.516l-.033.002H2.198v-.125c0-.381.314-.692.699-.692m8.018 10.453H2.897a.695.695 0 0 1-.699-.691v-2.959h9.416v2.959a.696.696 0 0 1-.7.691m2.738-7.62h4.299v3.084h-4.299zm3.474 5.35v-.249h.825v.25z"/><path d="M3.756 13.854a.854.854 0 0 0-.86.85c0 .47.385.85.86.85.474 0 .858-.38.858-.85s-.384-.85-.858-.85m6.3 1.7c.474 0 .859-.38.859-.85s-.385-.85-.86-.85a.854.854 0 0 0-.858.85c0 .47.385.85.859.85"/></svg>
